build/img/general/logo.svg

<svg width="116" height="60" viewBox="0 0 116 60" fill="none" xmlns="http://www.w3.org/2000/svg">
<path fill-rule="evenodd" clip-rule="evenodd" d="M18.1378 35.0429C18.1499 34.5718 18.0589 34.1036 17.8714 33.6712C17.7077 33.3047 17.4632 32.98 17.1563 32.7212C16.8575 32.4717 16.5117 32.2846 16.1393 32.1708C15.7564 32.0543 15.3582 31.9959 14.9579 31.9976C14.4542 32.0149 13.9591 32.1325 13.5015 32.3437C13.0439 32.5549 12.6331 32.8553 12.2932 33.2273L3.62403 41.7416V32.2817H0.39528V41.5596C0.394015 42.0256 0.467489 42.4887 0.612901 42.9313C0.745042 43.3471 0.954481 43.7341 1.23023 44.0722C1.50046 44.3961 1.83855 44.6568 2.22061 44.8358C2.63778 45.0292 3.09315 45.1263 3.55297 45.1199C4.03746 45.1204 4.51681 45.0206 4.96082 44.8269C5.44712 44.6061 5.88142 44.2855 6.23544 43.8858L14.9047 35.4513V44.9512H18.1156V35.0429H18.1378ZM23.0498 32.2374H19.8388V44.929H23.0498V40.1347H34.7834V44.9423H37.9988V32.2374H34.7879V36.894H23.0498V32.2374ZM54.8532 40.1569H43.0396V41.755H54.8532V40.1569ZM54.7022 35.3847H43.0352V36.863H54.7022V35.3847ZM39.7265 32.193H53.4942C54.0232 32.1866 54.5519 32.2223 55.0752 32.2995C55.4764 32.3592 55.8659 32.4805 56.2299 32.6591C56.5454 32.8167 56.8274 33.0337 57.0604 33.2983C57.3064 33.5857 57.5166 33.9017 57.6866 34.2394C57.9817 34.8289 58.1323 35.4801 58.1261 36.1392C58.1199 36.7984 57.9571 37.4466 57.6511 38.0305L57.5845 38.1637C57.5604 38.2105 57.5321 38.255 57.5001 38.2968L57.4513 38.3812L57.4024 38.4966L57.4868 38.6298L57.6378 38.8606C57.6822 38.9376 57.7207 39.0101 57.7533 39.0781C57.792 39.154 57.8365 39.2267 57.8865 39.2956C58.1847 39.841 58.3477 40.45 58.3617 41.0713C58.3714 41.661 58.234 42.2438 57.962 42.7671C57.6694 43.3037 57.2501 43.7609 56.7407 44.0988C56.1406 44.4982 55.4569 44.7548 54.7421 44.8491C54.5157 44.8824 54.2871 44.8987 54.0582 44.8979H39.7131V32.1574L39.7265 32.193ZM59.9472 36.2681V36.095C59.942 36.0315 59.942 35.9676 59.9472 35.9041C59.9691 35.4583 60.0683 35.0197 60.2403 34.6079C60.4221 34.2114 60.6733 33.8506 60.982 33.5425C61.0708 33.4537 61.1597 33.3708 61.2485 33.2939L61.5327 33.0453C61.8681 32.773 62.2483 32.5612 62.6563 32.4194C63.1453 32.2746 63.652 32.1984 64.1619 32.193H78.0406V35.3847H63.2515V36.9296H78.0451V40.2279L63.2515 40.2634V41.7594H78.0451V44.9378H64.4684C63.8462 44.9551 63.2262 44.8588 62.6386 44.6537C62.1424 44.4545 61.6898 44.1605 61.3062 43.7881C60.874 43.3816 60.5189 42.9004 60.2581 42.3676C60.0552 41.8984 59.9538 41.3916 59.9605 40.8804V36.277L59.9472 36.2681ZM79.0177 32.193H97.1244V35.3847H89.7299V44.9334H86.4078V35.3936H79.0133V32.2018L79.0177 32.193ZM106.242 35.438L104.697 38.1992H107.757L106.242 35.438ZM102.614 35.2738L103.129 34.2439C103.172 34.1896 103.211 34.1317 103.244 34.0707L103.342 33.8976C103.657 33.3729 104.063 32.9085 104.541 32.5259C104.902 32.2547 105.317 32.064 105.758 31.9666C106.364 31.8476 106.993 31.945 107.535 32.2418C108.176 32.6611 108.706 33.2292 109.08 33.8976C109.125 33.9745 109.169 34.0471 109.213 34.1151C109.258 34.1832 109.302 34.2557 109.347 34.3326L109.88 35.3492L115.209 44.9467H111.465L109.586 41.4531H102.925L101.059 44.9467H97.2799L102.614 35.2738Z" fill="white"/>
<path fill-rule="evenodd" clip-rule="evenodd" d="M5.50707 56.9458H4.34792V49.9719H0V49.0086H9.84612V49.9719H5.50264V56.9458H5.50707ZM20.1319 52.0894C20.1428 51.6898 20.0559 51.2936 19.8788 50.9352C19.7125 50.6174 19.454 50.3574 19.1371 50.1894C18.7846 50.0077 18.3921 49.9177 17.9957 49.9275H14.3584C13.9856 49.9191 13.6174 50.0111 13.2925 50.1938C12.985 50.3709 12.7351 50.633 12.573 50.9485C12.3951 51.3004 12.3067 51.6907 12.3154 52.0849L20.1319 52.0894ZM12.3154 53.0527V53.8206C12.3154 55.2826 13.0556 56.0121 14.536 56.0092H18.3155C18.8089 56.0455 19.2982 55.8967 19.6878 55.5919C19.8323 55.4628 19.9469 55.3038 20.0236 55.1259C20.1003 54.9481 20.1373 54.7556 20.1319 54.562V54.4022H21.2911V54.562C21.2883 54.9508 21.1955 55.3336 21.0202 55.6807C20.8228 56.0701 20.5135 56.3917 20.1319 56.604C19.6243 56.8733 19.0539 57.002 18.4798 56.9769H14.5849C13.4361 56.9769 12.5804 56.7254 12.0179 56.2222C11.7256 55.9348 11.4989 55.5877 11.3533 55.2046C11.2076 54.8215 11.1465 54.4115 11.174 54.0027V51.9118C11.1754 51.4108 11.3136 50.9196 11.5737 50.4913C11.8548 50.0265 12.2591 49.6486 12.7418 49.3992C13.2999 49.1113 13.9214 48.9678 14.5493 48.9819H17.8936C18.8057 48.9226 19.7066 49.2096 20.4162 49.7854C20.7005 50.033 20.9273 50.3396 21.0807 50.6839C21.2341 51.0282 21.3105 51.4018 21.3044 51.7786V53.066L12.3154 53.0527ZM24.1512 56.9458H22.9876V49.0041H32.9981V56.9458H31.8389V49.9719H24.1468V56.9458H24.1512ZM44.1366 49.9719H37.4748V53.9671C37.4748 55.9381 36.5199 56.9236 34.6102 56.9236H34.2727V55.9603H34.6102C34.8477 55.9794 35.0864 55.9455 35.3091 55.861C35.5319 55.7766 35.7331 55.6437 35.8982 55.472C36.2136 55.0233 36.3614 54.4781 36.3156 53.9316V49.0041H45.278V56.9458H44.1188V49.9719H44.1366ZM56.9583 53.9671C56.9691 53.708 56.9193 53.4499 56.8129 53.2134C56.7065 52.9768 56.5465 52.7683 56.3454 52.6043C55.7989 52.2296 55.1409 52.0527 54.4801 52.1027H48.2802V49.0174H47.0944V56.9592H54.2669C56.0434 56.9592 56.9316 56.2844 56.9316 54.9349V53.9716L56.9583 53.9671ZM48.3024 53.0793H54.076C54.5535 53.0308 55.0347 53.1267 55.4572 53.3545C55.5823 53.464 55.6798 53.6014 55.7416 53.7558C55.8033 53.9101 55.8276 54.0769 55.8124 54.2424V54.8195C55.8238 54.9867 55.7956 55.1543 55.73 55.3085C55.6644 55.4628 55.5633 55.5994 55.435 55.7073C55.0204 55.9491 54.5404 56.0547 54.0626 56.0092H48.2802V53.0571L48.3024 53.0793ZM58.7303 56.9725V49.0041H59.8895V56.9458L58.7303 56.9725ZM61.7814 56.9725V49.0041H62.9406V56.0491H63.3136L69.8644 49.0041H71.7519V56.9458H70.5927V49.9053H70.273L63.7577 56.9458L61.7814 56.9725ZM66.5024 47.5037H66.649C67.1186 47.5184 67.5883 47.4766 68.0479 47.3794C68.3033 47.3357 68.5321 47.1959 68.6875 46.9888C68.8095 46.7631 68.8663 46.508 68.8518 46.2518H69.78C69.798 46.673 69.7174 47.0925 69.5446 47.4771C69.3356 47.8276 68.9977 48.0825 68.6031 48.1873C67.9351 48.3781 67.2411 48.462 66.5468 48.4359C65.8701 48.4622 65.1936 48.3783 64.5438 48.1873C64.1504 48.0777 63.8136 47.822 63.6023 47.4726C63.4271 47.0903 63.3449 46.672 63.3625 46.2518H64.2996C64.2861 46.5064 64.3429 46.7598 64.4639 46.9843C64.6235 47.1721 64.8462 47.2952 65.0901 47.3306C65.5512 47.428 66.0224 47.4697 66.4935 47.4549L66.5024 47.5037ZM79.1642 56.0092C79.9785 55.5593 80.3856 54.5457 80.3856 52.9683V49.0308H89.1614V56.0047H90.094V60H88.9837V56.9769H79.6572V60H78.5469V56.0047L79.1642 56.0092ZM88.0466 56.0092V49.9719H81.5225V52.8041C81.5225 54.488 81.185 55.549 80.5099 55.987L88.0466 56.0092ZM91.3109 52.116C91.2963 51.698 91.3645 51.2812 91.5116 50.8896C91.6587 50.498 91.8818 50.1394 92.168 49.8343C92.7217 49.2749 93.5951 48.9953 94.7883 48.9953H97.9727C98.6708 48.966 99.3653 49.111 99.9934 49.417C100.474 49.6602 100.862 50.0528 101.099 50.5357C101.327 51.0331 101.447 51.5733 101.45 52.1204V53.8562C101.447 54.4086 101.324 54.9537 101.09 55.4543C100.846 55.9403 100.455 56.3365 99.9712 56.5863C99.3541 56.8985 98.6685 57.0511 97.9771 57.0302H94.7928C92.5071 57.0302 91.3494 55.9781 91.3198 53.8739C91.3198 53.7452 91.3198 53.5898 91.3198 53.4034C91.3198 53.2169 91.3198 53.0838 91.3198 53.0083C91.3198 52.9328 91.3198 52.7996 91.3198 52.6132C91.3198 52.4267 91.3198 52.2669 91.3198 52.1426L91.3109 52.116ZM92.47 53.8517C92.47 55.3107 93.268 56.0402 94.8639 56.0402H97.8883C99.4901 56.0402 100.29 55.3107 100.287 53.8517V52.116C100.305 51.8209 100.26 51.5252 100.153 51.2493C100.047 50.9734 99.8815 50.7239 99.6692 50.5179C99.1682 50.1153 98.5341 49.9157 97.8927 49.9586H94.8683C94.4141 49.9416 93.9611 50.0156 93.5359 50.1761C93.2012 50.3124 92.9225 50.5581 92.7454 50.873C92.5529 51.2586 92.4569 51.6852 92.4656 52.116V53.8517H92.47ZM115.2 49.0308H113.055L109.022 55.765L105.025 48.9997H102.929V56.9414H104.088V49.9053H104.443L108.658 56.9503H109.431L113.646 49.9053H114.001V56.9503H115.16L115.2 49.0308Z" fill="#FF8500"/>
<path fill-rule="evenodd" clip-rule="evenodd" d="M59.2677 8.70967C58.8503 8.43888 58.7703 9.0071 58.8236 6.83634C58.8631 6.13298 58.8423 5.42754 58.7614 4.72773L45.167 3.47587C45.731 4.36371 48.5156 5.97957 49.4083 6.5833C50.9005 7.63539 61.5905 14.9645 62.3499 15.3285C66.3914 13.4196 62.9317 13.2909 70.0776 12.6028L72.5647 12.3676C73.2664 12.4475 72.8889 12.2211 73.1909 12.7404L72.0362 13.0379C71.6542 13.0867 71.2589 13.1045 70.877 13.1355C65.1656 13.6194 66.3337 13.4108 60.9287 17.0287L57.6645 19.3637C60.8133 19.5724 68.3944 21.3613 71.8763 22.3158C73.9281 22.8751 74.3322 21.8719 75.7845 20.9485C76.9392 20.2027 88.5618 12.372 89.5522 11.493C87.0429 11.493 78.1384 12.3809 77.3656 12.7582C77.3656 13.5972 77.7342 16.021 77.0503 16.4028C76.3086 16.061 76.6817 8.71411 76.6994 7.62651C75.5269 8.16809 74.5898 9.02041 73.5373 9.6641C72.649 9.36667 70.0421 7.56436 69.2116 7.00059C66.8311 5.38916 65.703 6.45013 63.2248 5.73986L63.1094 2.28618C62.3632 1.72684 60.6489 0.279669 59.7163 0L59.7518 7.73749C59.6053 9.087 59.9073 8.31903 59.2677 8.70967Z" fill="white"/>
<path fill-rule="evenodd" clip-rule="evenodd" d="M9.13112 27.1323C9.18441 27.1323 16.3791 24.815 20.505 24.1181C34.9256 21.6765 47.3787 23.4034 61.435 25.5697C71.6853 27.1456 89.1836 32.7079 100.127 29.9157C102.134 29.4007 104.048 28.504 104.857 27.1989C106.069 25.2368 105.7 23.1281 104.488 21.4901C104.843 23.905 105.252 25.6008 103.244 26.9059C99.3228 29.4629 87.7891 26.9414 83.752 26.058C75.5491 24.2823 67.7326 21.6188 59.2722 20.4202C42.9952 18.1119 26.2386 17.7079 11.3784 25.6984C10.7166 26.058 9.48641 26.9814 9.13112 27.1323Z" fill="url(#paint0_linear)"/>
<path fill-rule="evenodd" clip-rule="evenodd" d="M29.8182 11.4886C30.6354 12.3764 34.1306 14.4939 35.3741 15.3729C36.3823 16.0832 37.1728 16.567 38.2431 17.3217C39.9974 18.5647 39.9707 18.0764 42.3601 18.1074C48.9109 18.1873 50.2521 18.6046 55.8302 19.0974C57.207 19.2172 58.1263 18.1607 59.0545 17.628C58.4461 16.8778 56.261 15.657 55.2884 14.9867C53.6629 13.8724 53.1877 13.2465 50.5319 13.4374C50.5852 17.0243 50.8561 16.9887 49.8257 17.0731C49.2439 16.2696 49.6525 9.66854 49.5415 8.22581C45.7931 10.6674 46.184 10.259 46.1884 12.918L39.007 12.0657C39.722 11.7239 43.9412 8.16809 44.8738 7.37792C45.2602 7.05386 45.4512 6.934 45.8686 6.6277C46.4993 6.13051 46.5837 6.07724 46.8501 5.43356C45.9619 5.13613 46.0552 4.89197 45.2158 4.59899L37.3238 11.0269C35.2675 12.8514 34.1084 11.6085 29.8182 11.4886Z" fill="white"/>
<path fill-rule="evenodd" clip-rule="evenodd" d="M87.6558 13.646C88.2154 14.343 89.8764 15.5371 90.7113 16.2252L97.1244 21.4457C99.1674 23.1148 98.3768 22.8929 101.725 22.9017C101.339 22.156 93.9356 16.3096 92.3546 15.0177C91.4663 14.2986 90.0496 12.9136 89.1258 12.5984C88.6284 12.9802 88.1399 13.2288 87.6558 13.646Z" fill="white"/>
<path fill-rule="evenodd" clip-rule="evenodd" d="M19.3725 21.277C20.1941 21.2193 22.2593 20.5579 23.1164 20.3226C24.3999 19.9719 29.4229 15.6748 30.9729 14.3341L31.6524 13.6416L30.0935 12.5185L22.0772 19.0441C21.4909 19.5413 21.2245 19.71 20.7448 20.1184C20.2652 20.5268 19.8699 20.9219 19.3725 21.277Z" fill="white"/>
<defs>
<linearGradient id="paint0_linear" x1="30.6087" y1="-5.63775" x2="86.104" y2="57.8142" gradientUnits="userSpaceOnUse">
<stop stop-color="#E30613"/>
<stop offset="0.25" stop-color="#EF7D00"/>
<stop offset="0.36" stop-color="#FFED00"/>
<stop offset="0.49" stop-color="#009640"/>
<stop offset="0.59" stop-color="#009FE3"/>
<stop offset="0.7" stop-color="#312783"/>
<stop offset="1" stop-color="#AD4582"/>
</linearGradient>
</defs>
</svg>

<svg width="116" height="60" fill="none" xmlns="http://www.w3.org/2000/svg"><path fill-rule="evenodd" clip-rule="evenodd" d="M18.138 35.043a3.24 3.24 0 00-.267-1.372 2.664 2.664 0 00-.715-.95 2.916 2.916 0 00-1.017-.55 4 4 0 00-1.181-.173 3.785 3.785 0 00-2.665 1.23l-8.669 8.514v-9.46H.395v9.278a4.34 4.34 0 00.218 1.371c.132.416.341.803.617 1.141.27.324.609.585.99.764.418.193.873.29 1.333.284.484 0 .964-.1 1.408-.293.486-.22.92-.541 1.274-.941l8.67-8.435v9.5h3.21v-9.908h.023zm4.912-2.806h-3.211V44.93h3.21v-4.794h11.734v4.807H38V32.237h-3.211v4.657H23.05v-4.657zm31.803 7.92H43.04v1.598h11.813v-1.598zm-.15-4.772H43.034v1.478h11.667v-1.478zm-14.977-3.192h13.768c.53-.006 1.058.03 1.581.107.401.06.79.18 1.155.36.315.157.597.374.83.638.246.288.457.604.627.941a4.157 4.157 0 01-.036 3.792l-.067.133a.887.887 0 01-.084.133l-.049.084-.049.116.085.133.15.23c.045.078.084.15.116.218.039.076.084.149.133.218.299.545.462 1.154.476 1.775a3.55 3.55 0 01-.4 1.696 3.756 3.756 0 01-1.221 1.332c-.6.4-1.284.656-1.999.75a4.59 4.59 0 01-.684.049H39.713v-12.74l.014.035zm20.221 4.075v-.173a1.17 1.17 0 010-.19c.022-.447.121-.885.293-1.297.182-.397.433-.757.742-1.066.089-.088.178-.171.267-.248l.284-.249a3.72 3.72 0 011.123-.626 5.508 5.508 0 011.506-.226H78.04v3.192H63.25v1.545h14.794v3.298l-14.794.035v1.496h14.794v3.179H64.468a5.12 5.12 0 01-1.83-.284 4.112 4.112 0 01-1.332-.866 4.919 4.919 0 01-1.048-1.42 3.627 3.627 0 01-.297-1.488v-4.603l-.014-.009zm19.07-4.075h18.107v3.192H89.73v9.548h-3.322v-9.54h-7.395v-3.191l.005-.009zm27.225 3.245l-1.545 2.761h3.06l-1.515-2.761zm-3.628-.164l.515-1.03a1.2 1.2 0 00.115-.173l.098-.173c.315-.525.721-.99 1.199-1.372a3.161 3.161 0 011.217-.56 2.64 2.64 0 011.777.276 4.75 4.75 0 011.545 1.656c.045.076.089.15.133.217.045.068.089.14.134.218l.533 1.016 5.329 9.598h-3.744l-1.879-3.494h-6.661l-1.866 3.494h-3.78l5.335-9.673z" fill="#fff"/><path fill-rule="evenodd" clip-rule="evenodd" d="M5.507 56.946h-1.16v-6.974H0v-.963h9.846v.963H5.503v6.974h.004zm14.625-4.857c.01-.4-.076-.795-.253-1.154a1.776 1.776 0 00-.742-.746 2.364 2.364 0 00-1.141-.261h-3.638a2.08 2.08 0 00-1.066.266 1.842 1.842 0 00-.719.755 2.401 2.401 0 00-.258 1.136l7.817.004zm-7.817.964v.768c0 1.462.74 2.191 2.221 2.188h3.78a1.99 1.99 0 001.372-.417 1.332 1.332 0 00.444-1.03v-.16h1.16v.16a2.522 2.522 0 01-.272 1.119 2.19 2.19 0 01-.888.923 3.225 3.225 0 01-1.652.373h-3.895c-1.149 0-2.005-.252-2.567-.755a2.844 2.844 0 01-.844-2.22v-2.09c.001-.501.14-.992.4-1.42a2.944 2.944 0 011.168-1.093 3.759 3.759 0 011.807-.417h3.345a3.63 3.63 0 012.522.803 2.588 2.588 0 01.888 1.994v1.287l-8.989-.013zm11.836 3.893h-1.163v-7.942h10.01v7.942h-1.16v-6.974h-7.691v6.974h.004zm19.986-6.974h-6.662v3.995c0 1.971-.955 2.957-2.865 2.957h-.337v-.964h.337a1.607 1.607 0 001.288-.488 2.34 2.34 0 00.418-1.54v-4.928h8.962v7.942h-1.16v-6.974h.019zm12.821 3.995a1.668 1.668 0 00-.613-1.363 2.91 2.91 0 00-1.865-.501h-6.2v-3.086h-1.186v7.942h7.173c1.776 0 2.665-.675 2.665-2.024v-.963l.026-.005zm-8.656-.888h5.774a2.4 2.4 0 011.381.276 1.054 1.054 0 01.355.887v.578a1.064 1.064 0 01-.377.887 2.293 2.293 0 01-1.372.302H48.28v-2.952l.022.022zm10.428 3.893v-7.968h1.16v7.942l-1.16.026zm3.051 0v-7.968h1.16v7.045h.373l6.55-7.045h1.888v7.942h-1.16v-7.04h-.319l-6.515 7.04-1.977.026zm4.721-9.468h.147c.47.014.94-.027 1.399-.125.255-.043.484-.183.64-.39a1.4 1.4 0 00.164-.737h.928c.018.421-.063.84-.235 1.225-.21.35-.547.606-.942.71a6.586 6.586 0 01-2.056.249 6.243 6.243 0 01-2.003-.249 1.603 1.603 0 01-.942-.714 2.663 2.663 0 01-.24-1.221h.938c-.014.254.043.508.164.732.16.188.382.311.626.347.461.097.932.139 1.403.124l.01.049zm12.662 8.505c.814-.45 1.222-1.463 1.222-3.04V49.03h8.775v6.974h.933V60h-1.11v-3.023h-9.327V60h-1.11v-3.995l.617.004zm8.883 0v-6.037h-6.525v2.832c0 1.684-.337 2.745-1.012 3.183l7.537.022zm3.264-3.893a3.173 3.173 0 01.857-2.282c.554-.56 1.427-.839 2.62-.839h3.185a4.21 4.21 0 012.02.422c.481.243.869.636 1.106 1.119a3.85 3.85 0 01.351 1.584v1.736a3.823 3.823 0 01-.36 1.598 2.572 2.572 0 01-1.119 1.132 4.14 4.14 0 01-1.994.444h-3.184c-2.286 0-3.444-1.052-3.473-3.156v-1.731l-.01-.027zm1.159 1.736c0 1.459.798 2.188 2.394 2.188h3.024c1.602 0 2.402-.73 2.399-2.188v-1.736a2.05 2.05 0 00-.618-1.598 2.563 2.563 0 00-1.776-.56h-3.025a3.412 3.412 0 00-1.332.218 1.599 1.599 0 00-.79.697 2.663 2.663 0 00-.28 1.243v1.736h.004zm22.73-4.821h-2.145l-4.033 6.734L105.025 49h-2.096v7.941h1.159v-7.036h.355l4.215 7.045h.773l4.215-7.045h.355v7.045h1.159l.04-7.92z" fill="#FF8500"/><path fill-rule="evenodd" clip-rule="evenodd" d="M59.268 8.71c-.418-.271-.498.297-.444-1.874.04-.703.018-1.408-.063-2.108L45.167 3.476c.564.888 3.349 2.504 4.241 3.107C50.9 7.635 61.59 14.964 62.35 15.328c4.041-1.908.582-2.037 7.728-2.725l2.487-.235c.701.08.324-.147.626.372l-1.155.298c-.382.049-.777.066-1.159.098-5.711.483-4.543.275-9.948 3.893l-3.265 2.335c3.15.208 10.73 1.997 14.212 2.952 2.052.56 2.456-.444 3.908-1.367 1.155-.746 12.778-8.577 13.768-9.456-2.51 0-11.414.888-12.186 1.265 0 .84.368 3.263-.316 3.645-.741-.342-.368-7.689-.35-8.776-1.173.541-2.11 1.393-3.163 2.037-.888-.297-3.495-2.1-4.325-2.663-2.38-1.612-3.509-.55-5.987-1.261l-.116-3.454C62.363 1.726 60.65.28 59.716 0l.036 7.737c-.147 1.35.155.582-.484.973z" fill="#fff"/><path fill-rule="evenodd" clip-rule="evenodd" d="M9.131 27.132c.053 0 7.248-2.317 11.374-3.014 14.42-2.441 26.874-.715 40.93 1.452 10.25 1.576 27.749 7.138 38.692 4.346 2.007-.515 3.921-1.412 4.73-2.717 1.212-1.962.843-4.07-.369-5.709.355 2.415.764 4.11-1.244 5.416-3.921 2.557-15.455.035-19.492-.848-8.203-1.776-16.02-4.44-24.48-5.638-16.277-2.308-33.033-2.712-47.894 5.278-.661.36-1.892 1.283-2.247 1.434z" fill="url(#paint0_linear)"/><path fill-rule="evenodd" clip-rule="evenodd" d="M29.818 11.489c.817.887 4.313 3.005 5.556 3.884 1.008.71 1.799 1.194 2.87 1.949 1.753 1.243 1.727.754 4.116.785 6.55.08 7.892.498 13.47.99 1.377.12 2.296-.936 3.224-1.469-.608-.75-2.793-1.971-3.766-2.641-1.625-1.115-2.1-1.74-4.756-1.55.053 3.587.324 3.552-.706 3.636-.582-.803-.173-7.404-.285-8.847-3.748 2.441-3.357 2.033-3.353 4.692l-7.181-.852c.715-.342 4.934-3.898 5.867-4.688.386-.324.577-.444.995-.75.63-.497.715-.55.981-1.194-.888-.298-.795-.542-1.634-.835l-7.892 6.428c-2.056 1.824-3.216.582-7.506.462zm57.838 2.157c.56.697 2.22 1.891 3.055 2.58l6.413 5.22c2.043 1.669 1.253 1.447 4.601 1.456-.386-.746-7.79-6.592-9.37-7.884-.889-.72-2.305-2.104-3.23-2.42-.497.382-.985.63-1.47 1.048zm-68.284 7.631c.822-.058 2.887-.72 3.744-.954 1.284-.351 6.307-4.648 7.857-5.989l.68-.692-1.56-1.123-8.016 6.525c-.586.497-.853.666-1.332 1.074-.48.409-.875.804-1.373 1.159z" fill="#fff"/><defs><linearGradient id="paint0_linear" x1="30.609" y1="-5.638" x2="86.104" y2="57.814" gradientUnits="userSpaceOnUse"><stop stop-color="#E30613"/><stop offset=".25" stop-color="#EF7D00"/><stop offset=".36" stop-color="#FFED00"/><stop offset=".49" stop-color="#009640"/><stop offset=".59" stop-color="#009FE3"/><stop offset=".7" stop-color="#312783"/><stop offset="1" stop-color="#AD4582"/></linearGradient></defs></svg>
